!!!OTL@@FUR: Jo us doi la buine sere
!!!OTL@IT: Vi d&ograve; la buona sera
!!!OTL@EN: I will wish you good evening
**kern
*clefG2
*k[]
*C:
*M3/4
*MM100
*>[A,B,A,C]
=1
*>A
4g
4a
4g
=2
2e
4e
=3
4g
4a
4g
=4
2f
4f
=5
4g
4a
4g
=6
2b
4a
=7
4a
4g
4f
=8
2.e
=9
4g
4a
4g
=10
2e
4e
=11
4g
4a
4g
=12
2f
4f
=13
4g
4a
4g
=14
2b
4b
=15
*>B
4a
4g
4f
=16
2.e
=17:|!
*>C
4a
4g
4b
=18
2.cc
==
*-
!!!ARE: Friuli
!!!ENC: Kelly Leistikow
!!!END: 2002/03/07
!!!ref: @{OTL@@FUR}/@{OTL@EN}
